X:1
T:Title
%%score 1 2 3 4
L:1/8
Q:1/4=180
M:6/4
K:E
V:1 treble nm="Grand Piano"
V:2 bass nm="Grand Piano"
V:3 bass nm="Grand Piano, Melody"
V:4 bass nm="Grand Piano"
V:1
 z6 B6 | e4 B2 G4 B2 | E4 F2 G4 B2 | e4 c2 B4 c2 | B6 B6 | e4 B2 G4 B2 | E4 F2 G4 B2 | %7
 e4 c2 B4 c2 | B12 | e6 g4 e2 | c4 B2 e4 f2 | g6 g6 | f4 g2 e4 c2 | B6 B6 | e4 B2 G4 B2 | %15
 E4 F2 G4 B2 | e4 c2 B4 c2 | B12 |] %18
V:2
 z6 G,6 | E,4 E,2 G,2 F,2 E,2 | G,4 B,2 B,4 E,2 | G,4 G,2 B,2 G,2 F,2 | E,6 G,6 | %5
 E,4 E,2 G,2 F,2 E,2 | G,4 B,2 B,4 E,2 | G,4 G,2 B,2 G,2 F,2 | E,12 | G,6 B,4 B,2 | %10
 B,2 G,2 B,2 C4 B,2 | B,6 G,6 | F,4 E,2 G,4 G,2 | F,6 G,6 | E,4 E,2 G,2 F,2 E,2 | G,4 B,2 B,4 E,2 | %16
 G,4 G,2 B,2 G,2 F,2 | E,12 |] %18
V:3
 z6 E,6 | G,4 G,2 G,2 F,2 G,2 | B,4 B,2 G,4 B,2 | C2 B,2 G,2 F,2 E,2 F,2 | E,6 E,6 | %5
 G,4 G,2 G,2 F,2 G,2 | B,4 B,2 G,4 B,2 | C2 B,2 G,2 F,2 E,2 F,2 | E,12 | B,6[K:treble] E4 E2 | %10
 B,2 C2 E2 G4 F2 | E6 B,6 | C4 C2 C2[K:bass] B,2 G,2 | B,6 B,6 | C4[K:treble] C2 C2 B,2 C2 | %15
 E4 E2[K:bass] G,4 B,2 | C2 B,2 G,2 F,2 E,2 F,2 | E,12 |] %18
V:4
 z6 E,6 | E,4 C,2 C,4 B,,2 | E,4 C,2 G,4 E,2 | C,4 C,2 B,,4 C,2 | E,6 E,6 | E,4 C,2 C,4 B,,2 | %6
 E,4 C,2 G,4 E,2 | C,4 C,2 B,,4 C,2 | E,12 | E,6 E,4 E,2 | E,4 B,,2 C,4 D,2 | E,6 E,6 | %12
 F,4 E,2 C,2 D,2 E,2 | B,,6 E,6 | E,4 C,2 C,4 B,,2 | E,4 C,2 G,4 E,2 | C,4 C,2 B,,4 C,2 | E,12 |] %18

